; HEADER_BLOCK_START
; generated by OrcaSlicer 2.3.1 on 2026-02-22 at 15:03:23
; total layer number: 44
; filament_density: 0
; filament_diameter: 1.75
; max_z_height: 13.96
; HEADER_BLOCK_END

; THUMBNAIL_BLOCK_START

;
; THUMBNAIL_BLOCK_END

; THUMBNAIL_BLOCK_START

;
; THUMBNAIL_BLOCK_END

; THUMBNAIL_BLOCK_START

;
; THUMBNAIL_BLOCK_END

; THUMBNAIL_BLOCK_START

;
; THUMBNAIL_BLOCK_END

; THUMBNAIL_BLOCK_START

;
; THUMBNAIL_BLOCK_END

; external perimeters extrusion width = 0.68mm
; perimeters extrusion width = 0.68mm
; infill extrusion width = 0.68mm
; solid infill extrusion width = 0.68mm
; top infill extrusion width = 0.55mm
; first layer extrusion width = 0.68mm

; external perimeters extrusion width = 0.68mm
; perimeters extrusion width = 0.68mm
; infill extrusion width = 0.68mm
; solid infill extrusion width = 0.68mm
; top infill extrusion width = 0.55mm
; first layer extrusion width = 0.68mm

; external perimeters extrusion width = 0.68mm
; perimeters extrusion width = 0.68mm
; infill extrusion width = 0.68mm
; solid infill extrusion width = 0.68mm
; top infill extrusion width = 0.55mm
; first layer extrusion width = 0.68mm

; external perimeters extrusion width = 0.68mm
; perimeters extrusion width = 0.68mm
; infill extrusion width = 0.68mm
; solid infill extrusion width = 0.68mm
; top infill extrusion width = 0.55mm
; first layer extrusion width = 0.68mm

; external perimeters extrusion width = 0.68mm
; perimeters extrusion width = 0.68mm
; infill extrusion width = 0.68mm
; solid infill extrusion width = 0.68mm
; top infill extrusion width = 0.55mm
; first layer extrusion width = 0.68mm

; external perimeters extrusion width = 0.68mm
; perimeters extrusion width = 0.68mm
; infill extrusion width = 0.68mm
; solid infill extrusion width = 0.68mm
; top infill extrusion width = 0.55mm
; first layer extrusion width = 0.68mm

; external perimeters extrusion width = 0.68mm
; perimeters extrusion width = 0.68mm
; infill extrusion width = 0.68mm
; solid infill extrusion width = 0.68mm
; top infill extrusion width = 0.55mm
; first layer extrusion width = 0.68mm

; EXECUTABLE_BLOCK_START
M486 S0
M486 Abuttonboard_1.0.stl_id_0_copy_0
M486 S-1
M486 S1
M486 AFret_button.stl_id_1_copy_0
M486 S-1
M486 S2
M486 Aswitchboard_1.0.stl_id_2_copy_0
M486 S-1
M486 S3
M486 AFret_button.stl_id_3_copy_0
M486 S-1
M486 S4
M486 AFret_button.stl_id_4_copy_0
M486 S-1
M486 S5
M486 AFret_button.stl_id_5_copy_0
M486 S-1
M486 S6
M486 AFret_button.stl_id_6_copy_0
M486 S-1
M73 P0 R421
M201 X4000 Y4000 Z200 E2500
M203 X300 Y300 Z40 E100
M204 P4000 R1200 T4000 ; sets acceleration (P, T) and retract acceleration (R), mm/sec^2
M205 X8.00 Y8.00 Z2.00 E10.00 ; sets the jerk limits, mm/sec
;TYPE:Custom
M17 ; enable steppers
M862.1 P0.6 ; nozzle check
M862.3 P "MK4S" ; printer model check
M862.5 P2 ; g-code level check
M862.6 P"Input shaper" ; FW feature check
M115 U6.1.3+7898

M555 X38.7695 Y21.5441 W147.818 H178

G90 ; use absolute coordinates
M83 ; extruder relative mode

M140 S45 ; set bed temp
M104 T0 S170 ; set extruder temp for bed leveling
M109 T0 R170 ; wait for temp

M84 E ; turn off E motor

G28 ; home all without mesh bed level

G1 X42 Y-4 Z5 F4800

M302 S160 ; lower cold extrusion limit to 160C


G1 E-2 F2400 ; retraction
M73 P1 R417


M84 E ; turn off E motor

G29 P9 X10 Y-4 W32 H4

M106 S100

G0 Z40 F10000

M190 S45 ; wait for bed temp

M107

;
; MBL
;
M84 E ; turn off E motor
G29 P1 ; invalidate mbl & probe print area
G29 P1 X0 Y0 W50 H20 C ; probe near purge place
G29 P3.2 ; interpolate mbl probes
G29 P3.13 ; extrapolate mbl outside probe area
G29 A ; activate mbl

; prepare for purge
M104 S200
G0 X0 Y-4 Z15 F4800 ; move away and ready for the purge
M109 S200

G92 E0
M569 S0 E ; set spreadcycle mode for extruder

;
; Extrude purge line
;
G92 E0 ; reset extruder position
G1 E2 F2400 ; deretraction after the initial one before nozzle cleaning
G0 E7 X15 Z0.2 F500 ; purge
G0 X25 E4 F500 ; purge
G0 X35 E4 F650 ; purge
G0 X45 E4 F800 ; purge
G0 X48 Z0.05 F8000 ; wipe, move close to the bed
G0 X51 Z0.2 F8000 ; wipe, move quickly away from the bed

G92 E0
M221 S100 ; set flow to 100%
G90
G21
M83 ; use relative distances for extrusion
M106 S0
;LAYER_CHANGE
;Z:0.2
;HEIGHT:0.2
;BEFORE_LAYER_CHANGE
G92 E0.0
;0.2
M201 X4000 Y4000

;AFTER_LAYER_CHANGE
;0.2
M74 W0

;_SET_FAN_SPEED_CHANGING_LAYER
M204 P500
; printing object Fret button.stl id:5 copy 0
M204 T500
G1 E-.7 F2100
M486 S5
G1 X91.382 Y60.277 F18000
G1 Z.4 F720
G1 Z.2
G1 E.7 F1500
;TYPE:Inner wall
;WIDTH:0.679999
G1 F941.798
G1 X91.382 Y35.414 E1.31708
G1 X91.46 Y34.62 E.04224
G1 X91.676 Y33.908 E.03942
G1 X92.027 Y33.252 E.03943
G1 X92.499 Y32.677 E.03942
G1 X93.074 Y32.205 E.03943
G1 X93.73 Y31.854 E.03943
G1 X94.442 Y31.638 E.03942
G1 X95.236 Y31.56 E.04224
G1 X106.131 Y31.56 E.57712
G1 X106.924 Y31.638 E.04224
G1 X107.636 Y31.854 E.03942
G1 X108.293 Y32.205 E.03943
G1 X108.868 Y32.677 E.03942
G1 X109.34 Y33.252 E.03942
G1 X109.691 Y33.908 E.03943
G1 X109.907 Y34.62 E.03942
G1 X109.943 Y34.992 E.01976
G1 X109.985 Y35.612 E.03296
G1 X109.985 Y60.202 E1.3026
G1 X109.933 Y60.606 E.02154
G1 X109.821 Y60.825 E.01304
G1 X109.647 Y60.999 E.01307
G1 X109.428 Y61.111 E.01304
G1 X109.099 Y61.163 E.01761
G1 X92.342 Y61.163 E.88767
G1 X91.939 Y61.111 E.02154
G1 X91.72 Y60.999 E.01304
G1 X91.545 Y60.825 E.01307
G1 X91.433 Y60.606 E.01304
G1 X91.391 Y60.336 E.01443
G1 X90.727 Y60.353 F18000
;TYPE:Outer wall
G1 F941.798
G1 X90.723 Y60.329 E.00132
G1 X90.723 Y35.382 E1.32151
G1 X90.811 Y34.491 E.04739
G1 X91.064 Y33.655 E.04629
G1 X91.476 Y32.884 E.0463
G1 X92.031 Y32.209 E.0463
G1 X92.706 Y31.654 E.0463
G1 X93.477 Y31.242 E.0463
G1 X94.313 Y30.989 E.04629
G1 X95.204 Y30.901 E.04739
G1 X106.163 Y30.901 E.58053
G1 X107.053 Y30.989 E.04739
G1 X107.889 Y31.242 E.04629
G1 X108.66 Y31.654 E.0463
G1 X109.336 Y32.209 E.0463
G1 X109.89 Y32.884 E.0463
G1 X110.302 Y33.655 E.0463
G1 X110.556 Y34.491 E.04629
G1 X110.599 Y34.927 E.0232
G1 X110.643 Y35.612 E.03637
G1 X110.643 Y60.202 E1.3026
G1 X110.567 Y60.811 E.03251
G1 X110.361 Y61.217 E.02411
G1 X110.039 Y61.539 E.02412
G1 X109.633 Y61.745 E.02411
G1 X109.151 Y61.821 E.02588
G1 X92.342 Y61.821 E.89039
G1 X91.733 Y61.745 E.03251
G1 X91.328 Y61.539 E.02411
G1 X91.006 Y61.217 E.02412
G1 X90.799 Y60.811 E.02411
G1 X90.736 Y60.413 E.02138
G1 E-.56 F2100
;WIPE_START
G1 F941.798
G1 X90.723 Y60.329 E-.0119
G1 X90.723 Y59.414 E-.1281
;WIPE_END
G1 X97.541 Y50.205 Z.4 F18000
M73 P1 R416
G1 X109.525 Y34.019 Z.4
G1 Z.2 F720
G1 E.7 F1500
;TYPE:Bottom surface
;WIDTH:0.692582
G1 F923.557
G1 X108.49 Y32.985 E.07902
G1 X108.026 Y32.604 E.03247
G1 X107.452 Y32.297 E.03512
G1 X106.831 Y32.109 E.03511
G1 X106.681 Y32.094 E.00814
G1 X109.451 Y34.864 E.21163
G1 X109.507 Y35.437 E.03112
G1 X109.507 Y35.839 E.0217
G1 X105.705 Y32.038 E.29042
G1 X104.787 Y32.038 E.04963
G1 X109.507 Y36.758 E.3606
G1 X109.507 Y37.677 E.04963
G1 X103.868 Y32.038 E.43079
G1 X102.949 Y32.038 E.04963
G1 X109.507 Y38.595 E.50098
G1 X109.507 Y39.514 E.04963
G1 X102.03 Y32.038 E.57117
G1 X101.112 Y32.038 E.04963
G1 X109.507 Y40.433 E.64136
G1 X109.507 Y41.352 E.04963
G1 X100.193 Y32.038 E.71155
G1 X99.274 Y32.038 E.04963
G1 X109.507 Y42.27 E.78174
G1 X109.507 Y43.189 E.04963
G1 X98.355 Y32.038 E.85193
G1 X97.437 Y32.038 E.04963
G1 X109.507 Y44.108 E.92212
G1 X109.507 Y45.027 E.04963
G1 X96.518 Y32.038 E.99231
G1 X95.599 Y32.038 E.04963
G1 X109.507 Y45.945 E1.06249
G1 X109.507 Y46.864 E.04963
G1 X94.732 Y32.089 E1.12873
G1 X94.536 Y32.109 E.01064
G1 X93.996 Y32.272 E.03047
G1 X109.507 Y47.783 E1.18494
G1 X109.507 Y48.702 E.04963
G1 X93.385 Y32.58 E1.23162
G1 X93.341 Y32.604 E.00272
G1 X92.874 Y32.987 E.03265
G1 X109.507 Y49.621 E1.27071
G1 X109.507 Y50.539 E.04963
G1 X92.453 Y33.485 E1.30283
G1 X92.426 Y33.519 E.00233
G1 X92.127 Y34.078 E.03425
G1 X109.507 Y51.458 E1.32775
G1 X109.507 Y52.377 E.04963
G1 X91.923 Y34.793 E1.34334
G1 X91.86 Y35.437 E.03499
G1 X91.86 Y35.648 E.01139
G1 X109.507 Y53.296 E1.34817
G1 X109.507 Y54.214 E.04963
G1 X91.86 Y36.567 E1.34817
G1 X91.86 Y37.486 E.04963
G1 X109.507 Y55.133 E1.34817
G1 X109.507 Y56.052 E.04963
G1 X91.86 Y38.405 E1.34817
G1 X91.86 Y39.323 E.04963
G1 X109.507 Y56.971 E1.34817
G1 X109.507 Y57.889 E.04963
G1 X91.86 Y40.242 E1.34817
G1 X91.86 Y41.161 E.04963
G1 X109.507 Y58.808 E1.34817
G1 X109.507 Y59.727 E.04963
G1 X91.86 Y42.08 E1.34817
G1 X91.86 Y42.998 E.04963
G1 X109.416 Y60.555 E1.34122
G1 X109.363 Y60.608 E.00408
G1 X109.278 Y60.651 E.0051
G1 X109.062 Y60.685 E.01184
G1 X108.627 Y60.685 E.02347
G1 X91.86 Y43.917 E1.28098
G1 X91.86 Y44.836 E.04963
G1 X107.709 Y60.685 E1.21079
G1 X106.79 Y60.685 E.04963
G1 X91.86 Y45.755 E1.1406
G1 X91.86 Y46.673 E.04963
G1 X105.871 Y60.685 E1.07042
G1 X104.952 Y60.685 E.04963
G1 X91.86 Y47.592 E1.00023
G1 X91.86 Y48.511 E.04963
G1 X104.034 Y60.685 E.93004
G1 X103.115 Y60.685 E.04963
G1 X91.86 Y49.43 E.85985
G1 X91.86 Y50.348 E.04963
G1 X102.196 Y60.685 E.78966
G1 X101.277 Y60.685 E.04963
G1 X91.86 Y51.267 E.71947
G1 X91.86 Y52.186 E.04963
G1 X100.359 Y60.685 E.64928
G1 X99.44 Y60.685 E.04963
G1 X91.86 Y53.105 E.57909
G1 X91.86 Y54.023 E.04963
G1 X98.521 Y60.685 E.5089
G1 X97.602 Y60.685 E.04963
G1 X91.86 Y54.942 E.43871
G1 X91.86 Y55.861 E.04963
G1 X96.684 Y60.685 E.36853
G1 X95.765 Y60.685 E.04963
G1 X91.86 Y56.78 E.29834
G1 X91.86 Y57.699 E.04963
G1 X94.846 Y60.685 E.22815
G1 X93.927 Y60.685 E.04963
G1 X91.86 Y58.617 E.15796
G1 X91.86 Y59.536 E.04963
G1 X93.009 Y60.685 E.08777
G1 X92.305 Y60.685 E.03802
G1 X92.088 Y60.651 E.01184
G1 X92.022 Y60.617 E.004
G1 X91.573 Y60.168 E.03431
; stop printing object Fret button.stl id:5 copy 0
; printing object switchboard 1.0.stl id:2 copy 0
G1 E-.56 F2100
;WIPE_START
G1 F923.557
G1 X92.022 Y60.617 E-.08893
G1 X92.088 Y60.651 E-.01038
G1 X92.305 Y60.685 E-.03068
G1 X92.376 Y60.685 E-.01001
;WIPE_END
M486 S-1
M486 S2
G1 X103.53 Y58.064 Z.4 F18000
G1 X183.288 Y39.323 Z.4
G1 Z.2 F720
G1 E.7 F1500
;TYPE:Inner wall
;WIDTH:0.679999
G1 F941.798
G1 X183.334 Y39.67 E.01855
G1 X183.389 Y40.686 E.05389
G1 X183.389 Y174.029 E7.06364
G1 X183.311 Y175.217 E.06305
M73 P1 R415
G1 X183.086 Y176.345 E.06097
G1 X182.716 Y177.435 E.06097
G1 X182.207 Y178.468 E.06097
G1 X181.568 Y179.425 E.06097
G1 X180.809 Y180.29 E.06097
G1 X179.944 Y181.049 E.06097
G1 X178.987 Y181.688 E.06097
G1 X177.954 Y182.197 E.06097
G1 X176.865 Y182.567 E.06097
G1 X175.736 Y182.792 E.06097
G1 X174.548 Y182.87 E.06305
G1 X164.626 Y182.87 E.52558
G1 X163.439 Y182.792 E.06303
G1 X162.301 Y182.564 E.06151
G1 X161.22 Y182.197 E.06045
G1 X160.188 Y181.688 E.06097
G1 X159.231 Y181.049 E.06097
G1 X158.365 Y180.29 E.06097
G1 X157.607 Y179.425 E.06097
G1 X156.967 Y178.468 E.06097
G1 X156.458 Y177.435 E.06097
G1 X156.088 Y176.345 E.06097
G1 X155.864 Y175.217 E.06097
G1 X155.786 Y174.029 E.06305
G1 X155.786 Y40.507 E7.07308
G1 X155.864 Y39.32 E.06305
G1 X156.088 Y38.191 E.06097
G1 X156.458 Y37.101 E.06097
G1 X156.967 Y36.069 E.06097
G1 X157.607 Y35.112 E.06097
G1 X158.365 Y34.246 E.06097
G1 X159.231 Y33.488 E.06097
G1 X160.188 Y32.848 E.06097
G1 X161.22 Y32.339 E.06097
G1 X162.31 Y31.969 E.06097
G1 X163.439 Y31.745 E.06097
G1 X164.626 Y31.667 E.06305
G1 X174.548 Y31.667 E.52558
G1 X175.736 Y31.745 E.06305
G1 X176.865 Y31.969 E.06097
G1 X177.954 Y32.339 E.06097
G1 X178.987 Y32.848 E.06097
G1 X179.944 Y33.488 E.06097
G1 X180.809 Y34.246 E.06097
G1 X181.568 Y35.111 E.06094
G1 X182.212 Y36.077 E.06151
G1 X182.716 Y37.101 E.06045
G1 X183.086 Y38.191 E.06097
G1 X183.242 Y38.975 E.04238
G1 X183.28 Y39.263 E.01537
G1 X183.965 Y39.234 F18000
;TYPE:Outer wall
G1 F941.798
G1 X183.991 Y39.627 E.02088
G1 X184.047 Y40.686 E.05617
G1 X184.047 Y174.05 E7.06478
G1 X183.965 Y175.303 E.06648
G1 X183.724 Y176.516 E.06554
G1 X183.326 Y177.688 E.06554
G1 X182.779 Y178.798 E.06554
G1 X182.091 Y179.826 E.06554
G1 X181.276 Y180.757 E.06554
G1 X180.345 Y181.572 E.06554
G1 X179.317 Y182.26 E.06554
G1 X178.207 Y182.807 E.06554
G1 X177.035 Y183.205 E.06554
G1 X175.822 Y183.446 E.06554
G1 X174.57 Y183.528 E.06648
G1 X164.605 Y183.528 E.52786
G1 X163.353 Y183.446 E.06647
G1 X162.13 Y183.201 E.06608
G1 X160.967 Y182.807 E.06501
G1 X159.858 Y182.26 E.06554
G1 X158.829 Y181.572 E.06554
G1 X157.899 Y180.757 E.06554
G1 X157.083 Y179.826 E.06554
G1 X156.396 Y178.798 E.06554
G1 X155.848 Y177.688 E.06554
G1 X155.451 Y176.516 E.06554
G1 X155.209 Y175.303 E.06554
G1 X155.127 Y174.05 E.06648
G1 X155.127 Y40.486 E7.07537
G1 X155.209 Y39.234 E.06648
G1 X155.451 Y38.02 E.06554
G1 X155.848 Y36.848 E.06554
G1 X156.396 Y35.739 E.06554
G1 X157.083 Y34.71 E.06554
G1 X157.899 Y33.78 E.06554
G1 X158.829 Y32.964 E.06554
G1 X159.858 Y32.277 E.06554
G1 X160.967 Y31.729 E.06554
G1 X162.139 Y31.332 E.06554
G1 X163.353 Y31.09 E.06554
G1 X164.605 Y31.008 E.06648
G1 X174.57 Y31.008 E.52786
G1 X175.822 Y31.09 E.06648
G1 X177.035 Y31.332 E.06554
G1 X178.207 Y31.729 E.06554
G1 X179.317 Y32.277 E.06554
G1 X180.345 Y32.964 E.06554
G1 X181.276 Y33.78 E.06554
G1 X182.091 Y34.71 E.06553
G1 X182.783 Y35.748 E.06608
G1 X183.326 Y36.848 E.06501
G1 X183.724 Y38.02 E.06554
G1 X183.953 Y39.175 E.06236
G1 E-.56 F2100
;WIPE_START
G1 F941.798
G1 X183.991 Y39.627 E-.06351
G1 X184.02 Y40.172 E-.07649
;WIPE_END
G1 X172.666 Y39.313 Z.4 F18000
G1 Z.2 F720
G1 E.7 F1500
;TYPE:Inner wall
G1 F941.798
G1 X172.639 Y39.415 E.00556
G1 X172.414 Y39.956 E.03105
G1 X172.29 Y40.172 E.01321
G1 X171.933 Y40.637 E.03105
G1 X171.462 Y41.04 E.03284
G1 X171.075 Y41.295 E.02452
G1 X170.534 Y41.52 E.03105
G1 X170.293 Y41.584 E.01322
G1 X169.712 Y41.661 E.03105
G1 X169.462 Y41.661 E.01321
G1 X168.881 Y41.584 E.03105
G1 X168.64 Y41.52 E.01322
G1 X168.099 Y41.295 E.03105
G1 X167.883 Y41.171 E.01322
G1 X167.418 Y40.814 E.03105
G1 X167.242 Y40.637 E.01322
G1 X166.885 Y40.172 E.03105
G1 X166.76 Y39.956 E.01321
G1 X166.536 Y39.415 E.03105
G1 X166.431 Y38.871 E.02934
G1 X166.395 Y38.343 E.02801
G1 X166.471 Y37.762 E.03105
G1 X166.536 Y37.521 E.01322
G1 X166.76 Y36.98 E.03105
G1 X167.1 Y36.484 E.03186
G1 X167.418 Y36.123 E.02549
G1 X167.883 Y35.766 E.03105
G1 X168.64 Y35.417 E.04418
G1 X169.462 Y35.276 E.04418
G1 X169.712 Y35.276 E.01321
G1 X170.293 Y35.352 E.03105
G1 X171.075 Y35.641 E.04418
G1 X171.756 Y36.123 E.04418
G1 X172.29 Y36.764 E.04418
G1 X172.434 Y37.027 E.01588
G1 X172.639 Y37.521 E.02836
G1 X172.763 Y38.218 E.03748
G1 X172.78 Y38.593 E.01989
G1 X172.703 Y39.174 E.03105
G1 X172.681 Y39.255 E.00447
G1 X172.022 Y39.159 F18000
;TYPE:Outer wall
G1 F941.798
G1 X171.806 Y39.704 E.03108
G1 X171.41 Y40.236 E.03512
G1 X170.891 Y40.648 E.03512
G1 X170.282 Y40.911 E.03512
G1 X169.626 Y41.008 E.03512
G1 X168.967 Y40.931 E.03512
G1 X168.351 Y40.687 E.03512
G1 X167.819 Y40.291 E.03512
G1 X167.407 Y39.771 E.03512
G1 X167.144 Y39.163 E.03512
G1 X167.048 Y38.429 E.03919
G1 X167.124 Y37.848 E.03105
G1 X167.349 Y37.279 E.03244
G1 X167.764 Y36.7 E.03774
G1 X168.284 Y36.288 E.03512
G1 X168.892 Y36.025 E.03512
G1 X169.548 Y35.929 E.03512
G1 X170.207 Y36.005 E.03512
G1 X170.823 Y36.249 E.03512
G1 X171.356 Y36.645 E.03512
G1 X171.767 Y37.165 E.03512
G1 X172.03 Y37.773 E.03512
G1 X172.11 Y38.304 E.02841
G1 X172.127 Y38.507 E.0108
G1 X172.05 Y39.088 E.03105
G1 X172.044 Y39.103 E.00087
G1 E-.56 F2100
;WIPE_START
G1 F941.798
G1 X171.806 Y39.704 E-.09053
G1 X171.595 Y39.988 E-.04947
;WIPE_END
G1 X167.456 Y50.672 Z.4 F18000
G1 X162.964 Y62.267 Z.4
G1 Z.2 F720
G1 E.7 F1500
;TYPE:Inner wall
G1 F941.798
G1 X161.919 Y62.267 E.05532
G1 X161.459 Y62.149 E.02516
G1 X161.265 Y62.008 E.01268
G1 X161.049 Y61.706 E.01966
G1 X160.964 Y61.311 E.02142
G1 X160.964 Y50.225 E.58725
G1 X161.05 Y49.828 E.02152
G1 X161.268 Y49.526 E.01973
G1 X161.534 Y49.351 E.01691
G1 X161.919 Y49.27 E.02084
G1 X174.255 Y49.27 E.65347
G1 X174.563 Y49.321 E.01653
G1 X174.855 Y49.481 E.01766
G1 X175.034 Y49.672 E.01387
G1 X175.163 Y49.928 E.01518
G1 X175.211 Y50.225 E.01594
G1 X175.211 Y64.311 E.74617
G1 X175.166 Y64.6 E.01546
G1 X175.044 Y64.85 E.01477
G1 X174.778 Y65.111 E.01972
G1 X174.552 Y65.219 E.01328
G1 X174.358 Y65.267 E.01059
G1 X163.919 Y65.267 E.55297
